X:64
T:Slide, A
S:unknown, photocopy
M:12/8
I:speed 300
K:A
|:e2A c2B A2c BAB | c2B Bcd f2e c2e | e2A c2B A2c BAB | cec B2c A3 A3 :|
|:c2B Bce f2e c2B |c2B Bce f2e c2d | e2a c2B A2c BAB | cec B2c A3 A3:|
